!!!OTL: 390. Segenswunsch.
!!!COM: Heinr. Durège
!!!ODT: 1848
!!!ARE: Europa, Mitteleuropa, Deutschland
!!!SCT: B0390
!!!TXL: @@DE
!!!YEM: Copyright 1995, estate of Helmut Schaffrath.
**kern	**text
*ICvox	*
*Ivox	*
*clefG2	*
*M4/4	*
*met(c)	*
*k[]	*
*C:	*
!LO:TX:a:t=Innig.	!
{4g	Du
=1	=1
4.g	biſt
8g	wie
8gL	ei-
8aJ	.
8bL	-ne
8ccJ	.
=2	=2
2cc	Blu-
4b}	-me,
{8bL	ſo
8ccJ	.
=3	=3
4.dd	hold
8b	und
4g	ſchön
4f	und
=4	=4
(4f	rein
4e)	.
4r}	.
{4g	ich
=5	=5
4.g	ſchau'
8cc	dich
4cc	an,
4b	und
=6	=6
2g#	Weh-
2a}	-muth
=7	=7
{4gn	ſchleicht
8g	mir
8g	ins
8bL	Herʒ
8aJ	.
8gL	hin-
8fJ	.
=8	=8
2e	-ein.
4r}	.
=||	=||
{4g	2._Mir
=9	=9
4.g	iſt,
8g	als
8gL	ob
8aJ	.
8b	ich
8cc	die
=10	=10
2cc	Hän-
4b}	-de
{8bL	aufs
8ccJ	.
=11	=11
4.dd	Haupt
8b	dir
4g	le-
4f	-gen
=12	=12
(4f	ſollt',
4e)	.
2r}	.
=13	=13
{4g	be-
8g	-tend,
8g	daß
8gL	Gott
8ccJ	.
8cc	dich
8b	er-
=14	=14
4g#	-hal-
4a	-te,
4r}	.
{8eeL	ſo
8ddJ	.
=15	=15
4.g	rein
8g	und
4ee	ſchön
4dd	und
=16	=16
2cc	hold!
4r}	.
==	==
!!!AGN: Liebes - Lied, Liebes - Lust
!!!GTL: Liebeslieder - Liebeslust
!!!ONB: ESAC (Essen Associative Code) Database: BOEHME
!!!AMT: simple quadruple
!!!AIN: vox
!!!EED: Helmut Schaffrath
!!!EEV: 1.0
!!Mel. v. Heinr. Durège. 1848.
!!@@COMMENT:"Gedicht von Heinrich Heine. 1823. "Reiſebilder" (1826). 4. Ausg. 1848. 1, 59. Andere
!!Melodien giebts von Kücken, op. 19. R. Schumann, op. 25. Frʒ. Liſʒt. Wilh. Taubert, op. 186.
!!A. Rubinſtein, op. 32. Nach Tappert's Ʒäblung ſoll das Lied über 300mal komponirt ſein!"
!!@@END:
!!!Text: H. Heine
!!!URL-scan: https://archive.org/details/BoehmeVtLieder1895/page/n323/mode/2up
!!!ENC: Anna Maria Matuszewska
!!!EEV: 2024/08/07
*-	*-
